svg/OSM-icons/man_made #fabe0b °373737 !label=enman made,deKünstliches/22045;man_made=petroleum_well;!label=enpetroleum well,deÖl-Förder- turm.svg

<svg xmlns="http://www.w3.org/2000/svg" viewBox="0 0 580 580" enable-background="new 0 0 580 580"><path fill="#111" stroke="#eee" stroke-width="3.408" d="m66.28 1.768c-41.34 0-64.57 21.371-64.57 65.04v450.12c0 40.844 20.894 62.23 62.19 62.23h452.02c41.31 0 62.23-20.316 62.23-62.23v-450.12c0-42.601-20.923-65.04-63.52-65.04-.003 0-448.49-.143-448.35 0z"/><path fill="#fff" d="m463.43 383.63h-50.01l-66.768-281.95h5.058c5.288 0 9.575-4.287 9.575-9.576v-17.02c0-5.289-4.287-9.576-9.575-9.576h-123.42c-5.289 0-9.576 4.287-9.576 9.576v17.02c0 5.289 4.287 9.576 9.576 9.576h3.974l-67.04 281.95h-48.647c-5.289 0-9.576 4.287-9.576 9.576v45.751c0 5.289 4.287 9.576 9.576 9.576h42.56v65.966h17.02v-65.966h227.69v65.966h17.02v-65.966h42.56c5.288 0 9.575-4.287 9.575-9.576v-45.751c.0001-5.289-4.286-9.576-9.574-9.576m-101.2-142.31h-145.67l16.219-68.21h113.3l16.15 68.21m4.03 17.02l18.354 77.51h-190.54l18.431-77.51h153.75m-37.1-156.67l12.887 54.42h-105.22l12.939-54.41h79.4m-139.13 251.21h198.62l7.281 30.748h-213.21l7.311-30.748"/></svg>

<?xml version="1.0" encoding="utf-8"?>
<!-- Generator: Adobe Illustrator 15.0.0, SVG Export Plug-In . SVG Version: 6.00 Build 0)  -->
<!DOCTYPE svg PUBLIC "-//W3C//DTD SVG 1.1//EN" "http://www.w3.org/Graphics/SVG/1.1/DTD/svg11.dtd">
<svg version="1.1" xmlns="http://www.w3.org/2000/svg" xmlns:xlink="http://www.w3.org/1999/xlink" x="0px" y="0px" width="580px"
	 height="580px" viewBox="0 0 580 580" enable-background="new 0 0 580 580" xml:space="preserve">
<g id="Layer_2">
	<g id="g1327">
		<path id="path1329" fill="#111111" stroke="#EEEEEE" stroke-width="3.408" d="M66.275,1.768
			c-41.335,0-64.571,21.371-64.571,65.036v450.123c0,40.844,20.894,62.229,62.192,62.229H515.92
			c41.307,0,62.229-20.316,62.229-62.229V66.804c0-42.601-20.923-65.036-63.522-65.036C514.624,1.768,66.133,1.625,66.275,1.768z"/>
	</g>
</g>
<g id="svg2" xmlns:inkscape="http://www.inkscape.org/namespaces/inkscape" xmlns:rdf="http://www.w3.org/1999/02/22-rdf-syntax-ns#" xmlns:svg="http://www.w3.org/2000/svg" xmlns:sodipodi="http://sodipodi.sourceforge.net/DTD/sodipodi-0.dtd" xmlns:cc="http://creativecommons.org/ns#" xmlns:dc="http://purl.org/dc/elements/1.1/" inkscape:output_extension="org.inkscape.output.svg.inkscape" inkscape:version="0.46" sodipodi:docname="waste_bin.svg" sodipodi:version="0.32">
	<path fill="#FFFFFF" d="M463.429,383.63h-50.008l-66.768-281.954h5.058c5.288,0,9.575-4.287,9.575-9.576V75.076
		c0-5.289-4.287-9.576-9.575-9.576H228.289c-5.289,0-9.576,4.287-9.576,9.576V92.1c0,5.289,4.287,9.576,9.576,9.576h3.974
		L165.218,383.63h-48.647c-5.289,0-9.576,4.287-9.576,9.576v45.751c0,5.289,4.287,9.576,9.576,9.576h42.56v65.966h17.023v-65.966
		h227.691v65.966h17.023v-65.966h42.56c5.288,0,9.575-4.287,9.575-9.576v-45.751C473.004,387.917,468.717,383.63,463.429,383.63z
		 M362.227,241.323H216.555l16.219-68.208h113.301L362.227,241.323z M366.259,258.347l18.354,77.512H194.076l18.431-77.512H366.259z
		 M329.158,101.676l12.887,54.415H236.822l12.939-54.415H329.158z M190.028,352.882h198.616l7.281,30.748H182.717L190.028,352.882z"
		/>
</g>
</svg>
